X: 283
M: 2/2
L: 1/8
K: G
EFG2 A3B | A2A2 D2GF | EFG2 A3B | G4 :|\
|: "4 F"!+!B2AG |\
cBAG cBAG | A4 D2GF |\
EFG2 A3B | A2A2 D2GF | EFG2 A3B | G4 :|

